X:237
T:Sandy Boy
Z:Jack Campin, http://www.campin.me.uk/
F:Jack Campin's Nine-Note Tunebook
% last edit 03-02-2013
M:2/4
Q:1/4=108
L:1/16
K:DMix
dd|d2c2 A2c2|AGF2 D2dd|d2c2 A2c2|d6
z2|d2c2 A2c2|AGF2 D3D |F2A2 GAGF|D6:|
F2|A4   A3A |G2F2 D4  |F2A2 AGF2|A6
z2|A4   A3A |G2F2 D3D |F2A2 GAGF|D6:|

